X:144
T:Morning Dew
M:C
L:1/8
K:E Dorian
E3B BAFD|EBEB ADFD|E3B BAFA|BcdB ADFA|!
E3B BAFD|EBEB ADFD|E3B BAFA|dcdB ADFA|]!
B2eB fBeB|BcdB ADFA|B2eB fBeB|dcdB ADFA|!
B2eB fBeB|BcdB ADFA|Bdef gfge|dcdB ADFA|]!
B2GB EBGB|B2GB ADFA|B2GB EBGB|BcdB ADFA|!
B2GA BEGA|B2GB ADFA|BAGF GABc|dcdB ADFA|]!
